X:100
T:Lincolnshire Lads. VWMLa.100
%%VWML:Anon2-3049-p57-0
F:http://www.vwml.org/record/Anon2/3049/p57
S:Anon. MS, late 18thC, Vaughan Williams Mem. Library
N:Schottische? PJH.
O:England;Yorkshire
Z:vmp/efdss.Simon Wilson. Reviewed PJH 2008.
M:2/4
L:1/8
Q:1/4=160
K:A
A2A>c|B2B>d|cedc|dBAG|\
A2A>c|B2B>d|cedc|{c}B4:|
|:e2e>f|ecBA|f2fg|a2g>f|\
e2e>f|ecea|edcB|A4:|
